X:0402
T:Skiver the Quilt
G:Jig
M:6/8
L:1/8
Q:3/8=120
I: :: ::
Z:Jack Campin * www.campin.me.uk * 2009
K:A Dorian
B/d/|e3  edB|d3  dBd|e3  edB|dBA A2
B/d/|e3  edB|ded def|g3  ege|dBA A2::
B   |G3  BAB|g3  gab|G3  B3 |dBA A2
B   |GAG BAB|g3  gab|agf ege|dBA A2:|
<end>
<start>
